src/activities/reversecount/resource/ice-block.svg

<?xml version="1.0" encoding="UTF-8" standalone="no"?>
<!-- Created with Sodipodi ("http://www.sodipodi.com/") -->

<svg
   xmlns:dc="http://purl.org/dc/elements/1.1/"
   xmlns:cc="http://creativecommons.org/ns#"
   xmlns:rdf="http://www.w3.org/1999/02/22-rdf-syntax-ns#"
   xmlns:svg="http://www.w3.org/2000/svg"
   xmlns="http://www.w3.org/2000/svg"
   xmlns:xlink="http://www.w3.org/1999/xlink"
   xmlns:sodipodi="http://sodipodi.sourceforge.net/DTD/sodipodi-0.dtd"
   xmlns:inkscape="http://www.inkscape.org/namespaces/inkscape"
   id="svg602"
   sodipodi:version="0.32"
   width="400"
   height="200"
   xml:space="preserve"
   sodipodi:docname="ice-block.svg"
   inkscape:version="0.92.4 (5da689c313, 2019-01-14)"
   inkscape:output_extension="org.inkscape.output.svg.inkscape"
   version="1.0"
   sodipodi:modified="true"><metadata
     id="metadata23"><rdf:RDF><cc:Work
         rdf:about=""><dc:format>image/svg+xml</dc:format><dc:type
           rdf:resource="http://purl.org/dc/dcmitype/StillImage" /><dc:title></dc:title><dc:date>2019</dc:date><dc:creator><cc:Agent><dc:title>Timothée Giet</dc:title></cc:Agent></dc:creator><cc:license
           rdf:resource="http://creativecommons.org/licenses/by-sa/4.0/" /></cc:Work><cc:License
         rdf:about="http://creativecommons.org/licenses/by-sa/4.0/"><cc:permits
           rdf:resource="http://creativecommons.org/ns#Reproduction" /><cc:permits
           rdf:resource="http://creativecommons.org/ns#Distribution" /><cc:requires
           rdf:resource="http://creativecommons.org/ns#Notice" /><cc:requires
           rdf:resource="http://creativecommons.org/ns#Attribution" /><cc:permits
           rdf:resource="http://creativecommons.org/ns#DerivativeWorks" /><cc:requires
           rdf:resource="http://creativecommons.org/ns#ShareAlike" /></cc:License></rdf:RDF></metadata><defs
     id="defs604"><linearGradient
       inkscape:collect="always"
       id="linearGradient924"><stop
         style="stop-color:#eceef0;stop-opacity:0.50196081"
         offset="0"
         id="stop920" /><stop
         style="stop-color:#d2e2eb;stop-opacity:1"
         offset="1"
         id="stop922" /></linearGradient><radialGradient
       inkscape:collect="always"
       xlink:href="#linearGradient924"
       id="radialGradient926"
       cx="155.57999"
       cy="68.267921"
       fx="155.57999"
       fy="68.267921"
       r="207.55693"
       gradientTransform="matrix(1.1625507,-0.35055578,0.19321355,0.81148033,-70.679435,97.346202)"
       gradientUnits="userSpaceOnUse" /><radialGradient
       inkscape:collect="always"
       xlink:href="#linearGradient924"
       id="radialGradient926-6"
       cx="203.68784"
       cy="90.739265"
       fx="203.68784"
       fy="90.739265"
       r="207.55693"
       gradientTransform="matrix(1.3255727,0.39971355,-0.22663899,0.95186425,-73.989345,-66.205993)"
       gradientUnits="userSpaceOnUse" /></defs><sodipodi:namedview
     id="base"
     inkscape:zoom="1.4405687"
     inkscape:cx="143.06372"
     inkscape:cy="165.21253"
     inkscape:window-width="1884"
     inkscape:window-height="1051"
     inkscape:window-x="0"
     inkscape:window-y="0"
     inkscape:current-layer="layer3"
     showgrid="false"
     pagecolor="#1eb6e2"
     inkscape:pageopacity="0"
     inkscape:window-maximized="1" /><g
     inkscape:groupmode="layer"
     id="layer3"
     inkscape:label="Layer 1"
     transform="translate(0,0.8586273)"><path
       style="opacity:0.5;vector-effect:none;fill:url(#radialGradient926-6);fill-opacity:1;stroke:none;stroke-width:1.90458441;stroke-linecap:round;stroke-linejoin:miter;stroke-miterlimit:4;stroke-dasharray:none;stroke-dashoffset:0;stroke-opacity:1"
       d="M 49.285444,20.137614 H 343.26203 c 24.89174,0 44.13684,21.269981 44.93092,47.656621 l 2.41762,80.334785 c 0.7941,26.38665 -1.30264,43.57559 -26.19437,43.57559 H 37.197346 c -24.891729,0 -31.9486598,-10.37444 -31.6340102,-36.77383 L 6.7721457,53.510555 C 7.0867955,27.111162 24.393715,20.137614 49.285444,20.137614 Z"
       id="rect916-1"
       inkscape:connector-curvature="0"
       sodipodi:nodetypes="sssssssss" /><path
       style="opacity:1;vector-effect:none;fill:url(#radialGradient926);fill-opacity:1;stroke:none;stroke-width:1.90458441;stroke-linecap:round;stroke-linejoin:miter;stroke-miterlimit:4;stroke-dasharray:none;stroke-dashoffset:0;stroke-opacity:1"
       d="M 38.107301,11.171484 357.79616,7.0878977 c 15.90551,-1.309024 30.34293,9.0264973 32.09353,24.5091203 l 4.49308,106.886972 c 1.10873,26.37558 -12.25689,40.90229 -37.14859,40.84979 L 34.88803,178.65427 C 19.667203,176.45167 9.2773739,160.11201 9.9024753,133.71834 L 12.207699,36.384855 C 12.8328,9.9911814 13.217265,11.48942 38.107301,11.171484 Z"
       id="rect916"
       inkscape:connector-curvature="0"
       sodipodi:nodetypes="sccsscsss" /></g></svg>

<!--Created with Sodipodi ("http://www.sodipodi.com/")--><svg xmlns:dc="http://purl.org/dc/elements/1.1/" xmlns:cc="http://creativecommons.org/ns#" xmlns:rdf="http://www.w3.org/1999/02/22-rdf-syntax-ns#" xmlns="http://www.w3.org/2000/svg" xmlns:xlink="http://www.w3.org/1999/xlink" xmlns:sodipodi="http://sodipodi.sourceforge.net/DTD/sodipodi-0.dtd" xmlns:inkscape="http://www.inkscape.org/namespaces/inkscape" sodipodi:version="0.32" width="400" height="200" xml:space="preserve" sodipodi:docname="ice-block.svg" inkscape:version="0.92.4 (5da689c313, 2019-01-14)" inkscape:output_extension="org.inkscape.output.svg.inkscape" version="1.0" sodipodi:modified="true"><metadata><rdf:RDF><cc:Work><dc:format>image/svg+xml</dc:format><dc:type rdf:resource="http://purl.org/dc/dcmitype/StillImage"/><dc:title/><dc:date>2019</dc:date><dc:creator><cc:Agent><dc:title>Timothée Giet</dc:title></cc:Agent></dc:creator><cc:license rdf:resource="http://creativecommons.org/licenses/by-sa/4.0/"/></cc:Work><cc:License rdf:about="http://creativecommons.org/licenses/by-sa/4.0/"><cc:permits rdf:resource="http://creativecommons.org/ns#Reproduction"/><cc:permits rdf:resource="http://creativecommons.org/ns#Distribution"/><cc:requires rdf:resource="http://creativecommons.org/ns#Notice"/><cc:requires rdf:resource="http://creativecommons.org/ns#Attribution"/><cc:permits rdf:resource="http://creativecommons.org/ns#DerivativeWorks"/><cc:requires rdf:resource="http://creativecommons.org/ns#ShareAlike"/></cc:License></rdf:RDF></metadata><defs><radialGradient inkscape:collect="always" xlink:href="#a" id="c" cx="155.57999" cy="68.267921" fx="155.57999" fy="68.267921" r="207.55693" gradientTransform="matrix(1.16255 -.35056 .19321 .81148 -70.68 97.346)" gradientUnits="userSpaceOnUse"/><radialGradient inkscape:collect="always" xlink:href="#a" id="b" cx="203.68784" cy="90.739265" fx="203.68784" fy="90.739265" r="207.55693" gradientTransform="matrix(1.32557 .39971 -.22664 .95186 -73.99 -66.206)" gradientUnits="userSpaceOnUse"/><linearGradient inkscape:collect="always" id="a"><stop style="stop-color:#eceef0;stop-opacity:.50196081" offset="0"/><stop style="stop-color:#d2e2eb;stop-opacity:1" offset="1"/></linearGradient></defs><sodipodi:namedview inkscape:zoom="1.4405687" inkscape:cx="143.06372" inkscape:cy="165.21253" inkscape:window-width="1884" inkscape:window-height="1051" inkscape:window-x="0" inkscape:window-y="0" inkscape:current-layer="layer3" showgrid="false" pagecolor="#1eb6e2" inkscape:pageopacity="0" inkscape:window-maximized="1"/><g inkscape:groupmode="layer" inkscape:label="Layer 1"><path style="opacity:.5;vector-effect:none;fill:url(#b);fill-opacity:1;stroke:none;stroke-width:1.90458441;stroke-linecap:round;stroke-linejoin:miter;stroke-miterlimit:4;stroke-dasharray:none;stroke-dashoffset:0;stroke-opacity:1" d="M49.285 20.138h293.977c24.892 0 44.137 21.27 44.93 47.656l2.419 80.335c.794 26.387-1.303 43.576-26.195 43.576H37.197c-24.891 0-31.948-10.375-31.634-36.774l1.21-101.42c.314-26.4 17.62-33.373 42.512-33.373z" inkscape:connector-curvature="0" sodipodi:nodetypes="sssssssss" transform="translate(0 .859)"/><path style="opacity:1;vector-effect:none;fill:url(#c);fill-opacity:1;stroke:none;stroke-width:1.90458441;stroke-linecap:round;stroke-linejoin:miter;stroke-miterlimit:4;stroke-dasharray:none;stroke-dashoffset:0;stroke-opacity:1" d="m38.107 11.171 319.69-4.083c15.905-1.31 30.342 9.026 32.093 24.509l4.493 106.887c1.109 26.376-12.257 40.902-37.149 40.85l-322.346-.68c-15.22-2.202-25.61-18.542-24.986-44.936l2.306-97.333c.625-26.394 1.01-24.896 25.9-25.214z" inkscape:connector-curvature="0" sodipodi:nodetypes="sccsscsss" transform="translate(0 .859)"/></g></svg>
